icons/lock-16.svg

<svg width="16" height="16" viewBox="0 0 16 16" xmlns="http://www.w3.org/2000/svg">
  <path fill-rule="evenodd" clip-rule="evenodd" d="M4 4V6H3.75C3.28587 6 2.84075 6.18437 2.51256 6.51256C2.18437 6.84075 2 7.28587 2 7.75V13.25C2 14.216 2.784 15 3.75 15H12.25C12.7141 15 13.1592 14.8156 13.4874 14.4874C13.8156 14.1592 14 13.7141 14 13.25V7.75C14 7.28587 13.8156 6.84075 13.4874 6.51256C13.1592 6.18437 12.7141 6 12.25 6H12V4C12 2.93913 11.5786 1.92172 10.8284 1.17157C10.0783 0.421427 9.06087 0 8 0C6.93913 0 5.92172 0.421427 5.17157 1.17157C4.42143 1.92172 4 2.93913 4 4ZM10.5 6V4C10.5 3.33696 10.2366 2.70107 9.76777 2.23223C9.29893 1.76339 8.66304 1.5 8 1.5C7.33696 1.5 6.70107 1.76339 6.23223 2.23223C5.76339 2.70107 5.5 3.33696 5.5 4V6H10.5ZM12 7.5H12.25C12.3163 7.5 12.3799 7.52634 12.4268 7.57322C12.4737 7.62011 12.5 7.6837 12.5 7.75V13.25C12.5 13.3163 12.4737 13.3799 12.4268 13.4268C12.3799 13.4737 12.3163 13.5 12.25 13.5H3.75C3.6837 13.5 3.62011 13.4737 3.57322 13.4268C3.52634 13.3799 3.5 13.3163 3.5 13.25V7.75C3.5 7.6837 3.52634 7.62011 3.57322 7.57322C3.62011 7.52634 3.6837 7.5 3.75 7.5H12Z"/>
</svg>

<svg xmlns="http://www.w3.org/2000/svg" width="16" height="16" viewBox="0 0 16 16"><path fill-rule="evenodd" d="M4 4v2h-.25A1.75 1.75 0 002 7.75v5.5c0 .966.784 1.75 1.75 1.75h8.5A1.75 1.75 0 0014 13.25v-5.5A1.75 1.75 0 0012.25 6H12V4a4 4 0 10-8 0zm6.5 2V4a2.5 2.5 0 00-5 0v2h5zM12 7.5h.25a.25.25 0 01.25.25v5.5a.25.25 0 01-.25.25h-8.5a.25.25 0 01-.25-.25v-5.5a.25.25 0 01.25-.25H12z"/></svg>
